packages/core/src/svgs/tokens/mono/COMP.svg

<svg width="24" height="24" viewBox="0 0 24 24" fill="none" xmlns="http://www.w3.org/2000/svg">
<path d="M4.98679 17.5895C4.74207 17.4396 4.53991 17.2292 4.39959 16.9789C4.25928 16.7284 4.18551 16.4461 4.1853 16.1592V12.9058C4.1853 12.7807 4.21843 12.6607 4.28095 12.5538C4.32692 12.4744 4.38811 12.405 4.46101 12.3494C4.53392 12.2938 4.61708 12.2531 4.70573 12.2298C4.79438 12.2064 4.88677 12.2009 4.9776 12.2133C5.06843 12.2258 5.1559 12.256 5.23498 12.3024L12.8634 16.5812C13.075 16.7041 13.2509 16.8801 13.3736 17.0919C13.4962 17.3036 13.5616 17.5437 13.5631 17.7883V21.16C13.5631 21.3137 13.5136 21.4669 13.4342 21.5982C13.3771 21.6923 13.3018 21.7742 13.2128 21.8392C13.1238 21.9041 13.023 21.9508 12.9159 21.9766C12.8089 22.0025 12.6977 22.0069 12.5889 21.9897C12.4802 21.9725 12.3759 21.934 12.282 21.8765L4.98679 17.5895ZM15.9124 11.411C16.3407 11.6623 16.6889 12.1205 16.6889 12.6188V19.4589C16.6889 19.6614 16.4963 19.8484 16.3207 19.9466L14.9034 20.8724C14.8834 20.8837 14.8358 20.8924 14.8133 20.8993V17.1001C14.8133 16.6087 14.5814 16.1529 14.1594 15.8997L7.31121 11.9717V7.68297C7.31121 7.55918 7.35497 7.43914 7.41748 7.33224C7.46346 7.25292 7.52465 7.18347 7.59755 7.12787C7.67044 7.07226 7.75361 7.03162 7.84225 7.00827C7.93092 6.98491 8.0233 6.97931 8.11414 6.99178C8.20496 7.00424 8.29243 7.03454 8.3715 7.08091L15.9124 11.411ZM19.1196 6.35758C19.3314 6.48068 19.5072 6.65729 19.6291 6.86973C19.7512 7.08217 19.8153 7.32295 19.8148 7.56793V17.5602C19.8148 17.7653 19.7016 17.9541 19.5216 18.0517L17.9393 18.875V11.9179C17.9393 11.4266 17.7435 10.9726 17.3242 10.7195L10.4371 6.64892V2.69965C10.4371 2.57462 10.4928 2.45458 10.5528 2.34768C10.5989 2.26837 10.66 2.1989 10.7329 2.14325C10.8059 2.0876 10.889 2.04686 10.9777 2.02334C11.0662 1.99983 11.1587 1.994 11.2496 2.00621C11.3405 2.01842 11.4282 2.04842 11.5074 2.09447L19.1196 6.35758Z" fill="white"/>
</svg>

<svg xmlns="http://www.w3.org/2000/svg" width="24" height="24" fill="none" viewBox="0 0 24 24">
    <path fill="#fff" d="M4.987 17.59a1.68 1.68 0 0 1-.802-1.43v-3.254a.7.7 0 0 1 .276-.557.695.695 0 0 1 .774-.047l7.628 4.28a1.4 1.4 0 0 1 .7 1.206v3.372a.86.86 0 0 1-.647.817.84.84 0 0 1-.634-.1zm10.925-6.179c.429.251.777.71.777 1.208v6.84c0 .202-.193.39-.368.488l-1.418.925c-.02.012-.067.02-.09.027V17.1c0-.491-.232-.947-.654-1.2l-6.848-3.928V7.683c0-.124.044-.244.106-.35a.696.696 0 0 1 .954-.252zm3.208-5.053a1.4 1.4 0 0 1 .695 1.21v9.992a.56.56 0 0 1-.293.492l-1.583.823v-6.957c0-.491-.195-.945-.615-1.198l-6.887-4.071v-3.95c0-.124.056-.244.116-.351a.7.7 0 0 1 .954-.254z"/>
</svg>
